!!!COM: Gabriel Faure/
!!!CNT: Francais
!!!TXO: Francais
!!!OTL: Se/re/nade Toscane
!!!OPS: Op. 3
!!!ONM: No. 2
!!!LYR: Romain Bussine
!!!ENC: Jacob Pegg
!!!YOR: Album of Twenty Songs (Vingt Me/lodies,) Volume I
!!!YOR: Edward B. Marks Music Corporation, RCA Building, Radio
!!!YOR: City, New York 20, N.Y.
!!!ODT: 1878/
!!NB: Vocal melody and text only encoded.
!!NB: First instance of melodic material only encoded.
**kern	**silbe
*clef G2	*
*k[b-e-a-]	*
*M9/8	*
*MM105	*
!! Andante con moto quasi Allegretto
!!created: 8/20/03 13:57
!!proofed and posted: 8/20/03 15:06
!!edit time: 45 min.
=1	=1
1r	.
8r	.
=2	=2
1r	.
{8g	{O^
=3	=3
4gg	toi
8ff	que
(8ee-	ber-
8dd)	-ce
8cc	un
(16b-	re^-
16cc)	-ve
8dd	en-
8b-	-chan-
=4	=4
[2.g	-teur,
8g]}	|}
8r	.
{8g	{Tu
=5	=5
4gg	dors
8ff	tran-
8ee-	-quille
8dd	en
8cc	ton
(16dd	lit
16ee-)	|
8ff	so-
8cc	-li-
=6	=6
2.ee-	-tai-
8dd}	-re,}
8r	.
{8b-	{E/-
=7	=7
4b-	-veil-
8ee-	-le~
4ee-	~toi,
8dd	re-
4dd	-gar-
8cc	-de
=8	=8
4cc	le
8b-	chan-
[4.an	-teur,
4an]}	|}
{8ee-	{Es-
=9	=9
[4.dd	-cla-
4dd]	|
8dd	-ve
4gg	de
8ee-	tes
=10	=10
[4.dd	yeux,
4dd]}	|}
{8g	{dans
4cc	la
8bn	nuit
=11	=11
4.an	clai-
[4.g	-re!
8g]}	|}
8r	.
{8g	{E/-
=12	=12
4dd	-veil-
8dd	-le~
4cc	~toi
8cc	mon
(8.b-	a^-
16cc)	|
8b-	-me,
=13	=13
(8.a-	ma
16b-)	|
8cc	pen-
4.dd	-se/-
8g}	-e,}
8r	.
{8g	{En-
=14	=14
4gg	-tends
8gg	ma
4ff	voix
8ff	par
(8.ee-	la
16ff)	|
8ee-	bri-
=15	=15
(8.dd-	-se
16ee-)	em-
8ff	-por-
4.gg	-te/-
4.cc}	-e,}
=16	=16
8r	.
8r	.
{8aa-	{En-
4gg	-tends
8ff	ma
(8ff	voix
8ee-)	|
8dd	chan-
=17	=17
[2.gg	-ter!
4.gg]}	|}
=18	=18
8r	.
8r	.
{8ff	{En-
4ee-	-tends
8dd	ma
(8dd	voix
8cc)	|
8bn	pleu-
=19	=19
[4.ee-	-rer,
4ee-]	|
8a-	dans
4ee-	la
8ee-	ro-
=20	=20
(2.ee-	-se/-
4.bn)	|
=21	=21
2.cc}	-e!}
4r	.
8r	.
!! duplicate melody until
=43	=43
4r	.
8r	.
4r	.
8r	.
8r	.
8r	.
{8cc	{Si
=44	=44
(4dd	j'e/-
8ee-)	-tais
8ff	su^r
8ee-	que
8dd	tu
8ff	ne
8ee-	veux
8dd	pa-
=45	=45
4.cc	-rai^-
[4.g	-tre
8g]}	|}
8r	.
8r	.
=46	=46
4r	.
8r	.
{4.dd-	{Je
4dd-	m'en
8dd-	i-
=47	=47
4.ff	-rais,
4.ff	pour
4gg	t'ou-
8aa-	-bli-
=48	=48
[4.ddn	-er,
8ddn]	|
8ddn	de-
8ee-	-man-
8ff	-der
8ddn	au
8ee-	som-
=49	=49
4.cc}	-meil}
{4.g	{De
4cc	me
8cc	ber-
=50	=50
4ee-	-cer
8ee-	jus-
4gg	-qu'au
8gg	ma-
4ee-	-tin
8ee-	ver-
=51	=51
4.cc}	-meil,}
{4.g	{De
4cc	me
8cc	ber-
=52	=52
4een	-cer
8een	jus-
4gg	-qu'a
8gg	ne
4een	plus
8een	t'ai-
=53	=53
[2.cc	-mer!
4.cc_	|
=54	=54
4.cc]}	|}
4r	.
8r	.
4r	.
8r	.
*-	*-
